X:3732
T:Dan Mac's
M:2/4
L:1/8
R:Polka
K:D
|:DF AF/2A/2|dcBc|EF GF/2G/2|BAF2   |
DF AF/2A/2|dc Bc|EF G/2B/2A/2F/2|DF Dz:|
|:fA fA|fA f2|eB eB| B/2c/2d e2   |
fA fA|fA f2|eB B/2c/2d|ed dz:||


